X: 2359
T: BALKAN HORNPIPE
R: Hornpipe
%R: hornpipe, reel
B: James Kerr "Merry Melodies" v.2 p.39 #359
Z: 2016 John Chambers <jc:trillian.mit.edu>
M: C
L: 1/8
K: D
|: uA2 |\
d2(fd) ceAc | dAfd egce |\
d2(fd) ceAg | fdec d2 ::\
(AG) |\
FDAF dABG | FDAF EcAG |\
[1 FDAF dABG | FDEC D2 :|\
[2 FDAF dAAg | fdec d2 |]
